arquivos/projetos-logo/Camada_1.svg

<svg width="130" height="39" viewBox="0 0 130 39" fill="none" xmlns="http://www.w3.org/2000/svg">
<g clip-path="url(#clip0_43_148)">
<path d="M40.4583 0.875488H32.1791C31.7896 0.875488 31.4739 1.18486 31.4739 1.5665V37.4335C31.4739 37.8151 31.7896 38.1245 32.1791 38.1245H40.4583C40.8478 38.1245 41.1635 37.8151 41.1635 37.4335V1.5665C41.1635 1.18486 40.8478 0.875488 40.4583 0.875488Z" fill="#EFEFEF"/>
<path d="M87.4089 24.6364C85.5792 33.0409 77.8579 39.0017 68.0399 39.0017C56.4126 39.0017 47.6165 30.6022 47.6165 19.5008C47.6165 8.39943 56.4126 0 68.0399 0C77.8374 0 85.5467 5.9373 87.397 14.3149C87.4962 14.7661 87.1436 15.1921 86.6729 15.1921H77.7929C77.4951 15.1921 77.2246 15.0177 77.1116 14.7476C75.7132 11.4117 72.2454 9.19778 68.0262 9.20281C62.2682 9.2112 57.6057 13.8587 57.6057 19.5025C57.6057 25.1463 62.0782 29.8005 68.0416 29.8005C72.2625 29.8005 75.7303 27.5782 77.1219 24.2339C77.228 23.9773 77.4831 23.8129 77.7655 23.8129H86.7277C87.1727 23.8129 87.5031 24.2138 87.4107 24.6381L87.4089 24.6364Z" fill="#EFEFEF"/>
<path d="M107.591 24.457L103.534 28.6332C103.403 28.7674 103.331 28.9468 103.331 29.133V37.3999C103.331 37.7991 103 38.1245 102.591 38.1245H94.3805C93.9731 38.1245 93.6411 37.7991 93.6411 37.3999V1.60004C93.6411 1.20087 93.9731 0.875488 94.3805 0.875488H102.591C103 0.875488 103.331 1.20087 103.331 1.60004V16.393L102.581 17.1913C102.329 17.4597 102.314 17.8656 102.542 18.154L107.547 24.3983L107.593 24.4586L107.591 24.457Z" fill="url(#paint0_linear_43_148)"/>
<path d="M129.238 38.1264H118.725C118.489 38.1264 118.267 38.019 118.123 37.8362L113.354 31.7715L112.654 30.8876L107.591 24.4588L107.545 24.3985L102.54 18.1542C102.312 17.8674 102.329 17.4599 102.579 17.1915L103.329 16.3932L109.443 9.8806L117.757 1.11219C117.9 0.961238 118.102 0.874023 118.313 0.874023H128.444C129.11 0.874023 129.454 1.65392 128.997 2.13025L114.705 16.9919C114.446 17.2603 114.427 17.6729 114.66 17.963L129.837 36.9221C130.229 37.4119 129.873 38.1264 129.238 38.1264Z" fill="#6233FA"/>
<path d="M24.4886 1.6015V9.6504C24.4886 10.0496 24.1583 10.375 23.7492 10.375H11.112C10.3332 10.375 9.69993 10.9938 9.69993 11.7586V37.4014C9.69993 37.8006 9.36787 38.126 8.9605 38.126H0.739434C0.330349 38.126 0 37.8006 0 37.4014V11.0995C0 10.7003 0.330349 10.3766 0.739434 10.3766H8.83726C9.37301 10.3766 9.85227 10.0865 10.1005 9.63195L14.6278 1.26271C14.7562 1.02622 15.0061 0.876953 15.2816 0.876953H23.7509C24.16 0.876953 24.4903 1.20065 24.4903 1.6015H24.4886Z" fill="#EFEFEF"/>
</g>
<defs>
<linearGradient id="paint0_linear_43_148" x1="93.6411" y1="19.5008" x2="112.216" y2="19.5008" gradientUnits="userSpaceOnUse">
<stop stop-color="#F2F2F2"/>
<stop offset="0.24" stop-color="#EFEFEF"/>
<stop offset="0.38" stop-color="#E7E7E7"/>
<stop offset="0.49" stop-color="#D9D9D9"/>
<stop offset="0.59" stop-color="#C5C5C5"/>
<stop offset="0.66" stop-color="#B3B3B3"/>
</linearGradient>
<clipPath id="clip0_43_148">
<rect width="130" height="39" fill="white"/>
</clipPath>
</defs>
</svg>

<?xml version="1.0" encoding="utf-8"?>
<!-- Generator: Adobe Illustrator 25.2.1, SVG Export Plug-In . SVG Version: 6.00 Build 0)  -->
<svg version="1.1" id="Camada_1" xmlns="http://www.w3.org/2000/svg" xmlns:xlink="http://www.w3.org/1999/xlink" x="0px" y="0px"
	 viewBox="0 0 130 39" style="enable-background:new 0 0 130 39;" xml:space="preserve">
<style type="text/css">
	.st0{clip-path:url(#SVGID_2_);}
	.st1{fill:#EFEFEF;}
	.st2{fill:url(#SVGID_3_);}
	.st3{fill:#6233FA;}
</style>
<g>
	<defs>
		<rect id="SVGID_1_" width="130" height="39"/>
	</defs>
	<clipPath id="SVGID_2_">
		<use xlink:href="#SVGID_1_"  style="overflow:visible;"/>
	</clipPath>
	<g class="st0">
		<path class="st1" d="M40.5,0.9h-8.3c-0.4,0-0.7,0.3-0.7,0.7v35.9c0,0.4,0.3,0.7,0.7,0.7h8.3c0.4,0,0.7-0.3,0.7-0.7V1.6
			C41.2,1.2,40.8,0.9,40.5,0.9z"/>
		<path class="st1" d="M87.4,24.6C85.6,33,77.9,39,68,39c-11.6,0-20.4-8.4-20.4-19.5C47.6,8.4,56.4,0,68,0c9.8,0,17.5,5.9,19.4,14.3
			c0.1,0.5-0.3,0.9-0.7,0.9h-8.9c-0.3,0-0.6-0.2-0.7-0.4c-1.4-3.3-4.9-5.5-9.1-5.5c-5.8,0-10.4,4.7-10.4,10.3S62.1,29.8,68,29.8
			c4.2,0,7.7-2.2,9.1-5.6c0.1-0.3,0.4-0.4,0.6-0.4h9C87.2,23.8,87.5,24.2,87.4,24.6L87.4,24.6z"/>
		
			<linearGradient id="SVGID_3_" gradientUnits="userSpaceOnUse" x1="93.6411" y1="20.5" x2="112.216" y2="20.5" gradientTransform="matrix(1 0 0 -1 0 40)">
			<stop  offset="0" style="stop-color:#F2F2F2"/>
			<stop  offset="0.24" style="stop-color:#EFEFEF"/>
			<stop  offset="0.38" style="stop-color:#E7E7E7"/>
			<stop  offset="0.49" style="stop-color:#D9D9D9"/>
			<stop  offset="0.59" style="stop-color:#C5C5C5"/>
			<stop  offset="0.66" style="stop-color:#B3B3B3"/>
		</linearGradient>
		<path class="st2" d="M107.6,24.5l-4.1,4.2c-0.1,0.1-0.2,0.3-0.2,0.5v8.3c0,0.4-0.3,0.7-0.7,0.7h-8.2c-0.4,0-0.7-0.3-0.7-0.7V1.6
			c0-0.4,0.3-0.7,0.7-0.7h8.2c0.4,0,0.7,0.3,0.7,0.7v14.8l-0.8,0.8c-0.3,0.3-0.3,0.7,0,1L107.6,24.5L107.6,24.5L107.6,24.5z"/>
		<path class="st3" d="M129.2,38.1h-10.5c-0.2,0-0.5-0.1-0.6-0.3l-4.8-6.1l-0.7-0.9l-5.1-6.4l0-0.1l-5-6.2c-0.2-0.3-0.2-0.7,0-1
			l0.8-0.8l6.1-6.5l8.3-8.8c0.1-0.2,0.3-0.2,0.6-0.2h10.1c0.7,0,1,0.8,0.6,1.3L114.7,17c-0.3,0.3-0.3,0.7,0,1l15.2,19
			C130.2,37.4,129.9,38.1,129.2,38.1z"/>
		<path class="st1" d="M24.5,1.6v8c0,0.4-0.3,0.7-0.7,0.7H11.1c-0.8,0-1.4,0.6-1.4,1.4v25.6c0,0.4-0.3,0.7-0.7,0.7H0.7
			c-0.4,0-0.7-0.3-0.7-0.7V11.1c0-0.4,0.3-0.7,0.7-0.7h8.1c0.5,0,1-0.3,1.3-0.7l4.5-8.4C14.8,1,15,0.9,15.3,0.9h8.5
			C24.2,0.9,24.5,1.2,24.5,1.6L24.5,1.6z"/>
	</g>
</g>
</svg>
